X:1
T:Title
%%score ( 1 2 ) { 3 | 4 }
L:1/8
Q:1/4=90
M:4/4
K:Bb
V:1 treble nm="Grand Piano, Soprano"
V:2 treble 
V:3 bass nm="Choir Pad, Give Thanks to God (Hicks)"
V:4 bass 
V:1
 [DF][DF][B,D][DB]- [DB]2 [EA][DB] | [DG] [EA]3 [EA][EA][CE][EA]- | [EA]2 [EG][DF] [CE] [B,D]3 | %3
w: By~Ira~Evans~Hicks * * * * * *|||
 [DF][DF][B,D][DB]- [DB]2 [Fd][^Fd] | [^Fc] [GB]3 [EG][D=F][Ge][Fd]- | [Fd]2 [DB][EA] [Ec] [DB]3 | %6
w: |||
 z[Q:1/4=80] [DF] [DB][Fd]/[Fd]/- [Fd][Fd]/[Fd]/- [Fd][Ec]- | %7
w: |
 [Ec]/[DB]/ F2- [FB]- [FB]/ z/ [FA] [FB][Fc]/[Fc]/- | [Fc][Fc]/[Ge]/- [Ge][Fd]- [Fd]/[Fc]/ [Fd]3- | %9
w: ||
 [Fd][DF] [DB][Fd]/[Fd]/- [Fd][Fd]/[_Af]/- [Af][Ge]- | [Ge]/[Fd]/ c2 G- G/ z/ [EG] [EG][DF] | %11
w: ||
 [Ge][Fd][DB][EA] [Ec] [DB]3- | [DB]4 z4 |] %13
w: ||
V:2
 x8 | x8 | x8 | x8 | x8 | x8 | x8 | z .D3 z4 | x8 | x8 | z E3- E/ z/ z z2 | x8 | x8 |] %13
V:3
 B,B,B,F,- F,2 F,F, | F, F,3 F,F,A,F,- | F,2 A,B, A, B,3 | B,B,B,F,- F,2 B,B, | B, B,3 B,B,B,B,- | %5
 B,2 B,C A, B,3 | z B, B,B,/B,/- B,B,/B,/- B,B,/B,/- | %7
 B,B,- B,/B,/[K:treble]D- D/ z/ C B,A,/[K:bass]A,/- | A,A,/A,/- A,B,- B,/A,/B,- B,/A,/B,- | %9
 B,B, B,B,/B,/- B,B,/B,/- B,A,- | A,/B,/B,- B,/B,/B,- B,/ z/ B, B,B, | A,B,B,C A, B,3- | B,4 z4 |] %13
V:4
 B,,B,,B,,B,,- B,,2 B,,B,, | B,, C,3 C,C, .C,2 | z2 F,F, F, B,,3 | B,,B,,B,,B,,- B,,2 B,,B,, | %4
 D, E,3 E,F,F,F,- | F,2 F,F, F, B,,3 | z B,, B,,B,,/B,,/- B,,B,,/B,,/- B,,B,,/B,,/- | %7
 B,,B,,- B,,/B,,/B,,- B,,/ z/ F, F,F,/F,/- | F,F,/F,/- F,F,- F,/F,/B,,- B,,/F,/B,,- | %9
 B,,B,, B,,B,,/B,,/- B,,B,,/B,,/- B,,C,- | C,/D,/E,- E,/E,/E,- E,/ z/ E, E,F, | F,F,F,F, F, B,,3- | %12
 B,,4 z4 |] %13

